contributed-vectors/freshrss.svg

<svg xmlns="http://www.w3.org/2000/svg" xml:space="preserve" width="192" height="192"><path fill="#56595B" d="M182.584 171.539c0 6.39-5.178 11.566-11.567 11.566H21.129c-6.388 0-11.567-5.177-11.567-11.566V21.651c0-6.389 5.179-11.567 11.567-11.567h149.888c6.39 0 11.567 5.178 11.567 11.567v149.888z"/><circle cx="96.063" cy="96.6" r="19.969" fill="#FFF"/><path fill="#FFF" d="M96.063 20.052c-42.026 0-76.129 33.876-76.529 75.808h14.784c.398-33.767 27.884-61.024 61.745-61.024 34.109 0 61.764 27.654 61.764 61.763 0 33.984-27.454 61.555-61.394 61.754v14.784c42.104-.201 76.178-34.388 76.178-76.538 0-42.274-34.273-76.547-76.548-76.547zM132.674 96.6c0 20.095-16.193 36.4-36.24 36.601v14.422c28.012-.2 50.662-22.964 50.662-51.022 0-28.183-22.85-51.031-51.032-51.031-27.935 0-50.616 22.451-51.013 50.292h14.422c.395-19.877 16.621-35.872 36.59-35.872 20.218 0 36.611 16.392 36.611 36.61z"/><path fill="#B1B5BC" d="M172.602 96.23h-14.784c.001.124.01.245.01.369 0 33.984-27.454 61.555-61.394 61.754v14.784c42.104-.201 76.178-34.388 76.178-76.538-.001-.123-.009-.245-.01-.369zm-153.068-.37h14.784c.394-33.396 27.287-60.407 60.636-60.997V20.081c-41.514.591-75.024 34.218-75.42 75.779zm25.516 0h14.422c.388-19.505 16.024-35.262 35.481-35.843V45.596c-27.421.587-49.511 22.795-49.903 50.264zm102.046.74c0-.124-.01-.246-.011-.369h-14.421c.001.124.01.245.01.369 0 20.095-16.193 36.4-36.24 36.601v14.422c28.011-.201 50.662-22.965 50.662-51.023z"/></svg>

<?xml version="1.0" encoding="utf-8"?>
<!-- Generator: Adobe Illustrator 16.0.0, SVG Export Plug-In . SVG Version: 6.00 Build 0)  -->
<!DOCTYPE svg PUBLIC "-//W3C//DTD SVG 1.1//EN" "http://www.w3.org/Graphics/SVG/1.1/DTD/svg11.dtd">
<svg version="1.1" id="Layer_1" xmlns="http://www.w3.org/2000/svg" xmlns:xlink="http://www.w3.org/1999/xlink" x="0px" y="0px"
	 width="192px" height="192px" viewBox="0 0 192 192" enable-background="new 0 0 192 192" xml:space="preserve">
<g>
	<g>
		<path fill="#56595B" d="M182.584,171.539c0,6.39-5.178,11.566-11.567,11.566H21.129c-6.388,0-11.567-5.177-11.567-11.566V21.651
			c0-6.389,5.179-11.567,11.567-11.567h149.888c6.39,0,11.567,5.178,11.567,11.567V171.539z"/>
	</g>
	<circle fill="#FFFFFF" cx="96.063" cy="96.6" r="19.969"/>
	<path fill="#FFFFFF" d="M96.063,20.052c-42.026,0-76.129,33.876-76.529,75.808h14.784c0.398-33.767,27.884-61.024,61.745-61.024
		c34.109,0,61.764,27.654,61.764,61.763c0,33.984-27.454,61.555-61.394,61.754v14.784c42.104-0.201,76.178-34.388,76.178-76.538
		C172.611,54.325,138.338,20.052,96.063,20.052z M132.674,96.6c0,20.095-16.193,36.4-36.24,36.601v14.422
		c28.012-0.2,50.662-22.964,50.662-51.022c0-28.183-22.85-51.031-51.032-51.031c-27.935,0-50.616,22.451-51.013,50.292h14.422
		C59.868,75.985,76.094,59.99,96.063,59.99C116.281,59.99,132.674,76.382,132.674,96.6z"/>
	<path fill="#B1B5BC" d="M172.602,96.23h-14.784c0.001,0.124,0.01,0.245,0.01,0.369c0,33.984-27.454,61.555-61.394,61.754v14.784
		c42.104-0.201,76.178-34.388,76.178-76.538C172.611,96.476,172.603,96.354,172.602,96.23z M19.534,95.86h14.784
		c0.394-33.396,27.287-60.407,60.636-60.997V20.081C53.44,20.672,19.93,54.299,19.534,95.86z M45.05,95.86h14.422
		c0.388-19.505,16.024-35.262,35.481-35.843V45.596C67.532,46.183,45.442,68.391,45.05,95.86z M147.096,96.6
		c0-0.124-0.01-0.246-0.011-0.369h-14.421c0.001,0.124,0.01,0.245,0.01,0.369c0,20.095-16.193,36.4-36.24,36.601v14.422
		C124.445,147.422,147.096,124.658,147.096,96.6z"/>
</g>
</svg>
